X:1
T:9 Lieder und Gesänge, Op.63
T:Junge Lieder I
T:Johannes Brahms
T:Felix Schumann
T:9 Lieder und Gesänge, Op.63
T:5. Junge Lieder I
T:Creative Commons copyright waiver (CC0 1.0 Universal) 
T:Creative Commons copyright waiver (CC0 1.0 Universal) 
T:Creative Commons copyright waiver (CC0 1.0 Universal) 
T:Creative Commons copyright waiver (CC0 1.0 Universal) 
T:Creative Commons copyright waiver (CC0 1.0 Universal) 
C:Johannes Brahms
Z:Felix Schumann
Z:Creative Commons copyright waiver (CC0 1.0 Universal)
Z:
%%score 1 { ( 2 3 ) | ( 4 5 ) }
L:1/8
Q:1/4=114
M:4/4
K:F#
V:1 treble nm="Singstimme\nVoice"
V:2 treble nm="Pianoforte"
V:3 treble 
V:4 bass 
V:5 bass 
V:1
"^Lebhaft" z2 A A d4- | d2 d d f4- | f2 c d c3 G | A4 z2 F F | B2 A2 (GA) B =e | (c3 d) c2 z c | %6
w: Mei- ne Lie-|* be ist grün|_ wie der Flie- der-|busch, und mein|Lieb ist schön _ wie die|Son    \-- * \-    ne, mein|
 d2 c2 ^B2 f ^e | d4 c2 z c | =d2 d d d2 B d | f3 e B2 z c | =d2 d d d2 B d | (=a3 g) =d2 ^d2 | %12
w: Lieb ist schön wie die|Son    \-- \-    ne, die|glänzt wohl her- ab auf den|Flie- der- busch und|füllt ihn mit Duft und mit|Won    \-- * \-    ne, und|
 =e4 ^e2 e2 | (g2 f2) e2 d2 | (c6 E2) | F2 z2 z4 | z8 | z8 | z8 | !fermata!z2 z2 z4 | z2 A A d4- | %21
w: füllt ihn mit|Duft _ und mit|Won     \-- *|\-     ne.|||||Mei- ne See    \--|
 d2 d d f4- | f2 c d c3 G | A4 z2 F2 | B2 A A (GA) B =e | (c3 d) c2 z c | d2 c c ^B2 f ^e | %27
w: * \-    le hat Schwin    \--|* \-   gen der Nach   \-- ti-|gall und|wiegt sich in blü- * hen- dem|Flie    \-- * \-    der, und|wiegt sich in blü- hen- dem|
 d4 c2 z c | =d2 d d d2 B d | f3 e B2 z c | =d2 d2 d2 B d | (=a3 g) =d2 ^d2 | =e4 ^e4 | %33
w: Flie   \-- \-    der, und|jauch- zet und sin- get vom|Duft be- rauscht viel|lie- bes- trun- ke- ne|Lie- * der, viel|lie    \-- \-    bes    \--|
 (g2 f2) e2 d2 | (c6 E2) | F2 z2 z4 | z8 | z8 | z8 | !fermata!z2 z2 z4 | z8 |] %41
w: \-    trun    \-- * \-   ke- ne|Lie    \-- *|\-    der.||||||
V:2
!f! z2 A2 (d4 | d2) d2 (f4 | f2) c2 [Bc]4 | [Ac]8 | B2 [AB]2 [GB]2 [B=e]2 | [Bc]4 [Ac]4 | %6
!<(! [Bd]2 [Ac]2 [G^B]2 d^e!<)! | [df]4 [ce]2 c2 |!p! =d2 d2 [cd]2 [Bd]2 |!>(! [B=d]4 [Bc]4!>)! | %10
 =d2 d2 [cd]2 [Bd][=ABd] |!f!!>(! [B=d]4 [Bd]2 [B^d]2!>)! | [c=e]4 [c^e]4 | [Fc]4 [F=A]4 | %14
 [F^A]4 [EG]4 | (3z (A,C) (3z!<(! (FA,) (3z (G[B,F]) (3z (A[CF]) | %16
 (3z (B[B,F]) (3z (A[CF]) (3z (B[DF]) (3z!<)!!f! (=d[GB]) | (3z (AC) (3z AF- (3F BF-!<(! (3F cF- | %18
 (3F c-F- (3F B-F- (3F G-^E-!<)!!f! (3E"^poco ten." BE- |!p! E2!<(! A4 A2!<)! | z2 A2 (d4 | %21
 d2) d2 f4- | f2 c2 [Bc]4 | [Ac]8 | B2 [AB]2 [GB]2 [B=e]2 | [Bc]4 [Ac]4 | %26
!<(! [Bd]2 [Ac]2 [GB]2 d^e!<)! | [df]4 [ce]2 c2 | =d2 d2 [cd]2 [Bd]2 |!>(! [B=d]4 [Bc]4!>)! | %30
!<(! =d2 d2 [cd]2 [Bd][=ABd]!<)! |!f!!>(! [B=d]4 [Bd]2 [B^d]2!>)! | [c=e]4 [c^e]4 | [Fc]4 [F=A]4 | %34
 [F^A]4 [EG]4 | (3z (A,C) (3z!<(! (FA,) (3z (G[B,F]) (3z (A[CF]) | %36
 (3z (B[B,F]) (3z (A[CF]) (3z (B[DF]) (3z!<)!!f! (=d[GB]) | (3z (AC) (3z AF- (3F BF-!<(! (3F cF- | %38
 (3F c-F- (3F B-F- (3F G-^E-!<)!!f! (3E"^poco ten." BE- |!p! E2!<(! A4 A2-!<)! | %40
 [CFA]2 z2!p! !fermata![A,CFA]4 |] %41
V:3
 z/ [FA][FA][FA][FA][FA][FA][FA][FA]/ | z/ [FA][FA][FA][FA][FA][FA][FA][FA]/ | %2
 z/ [FA][FA][FA][FA]/ z/ [EG][EG][EG][EG]/ | z/ [CF]!>(![CF][CF][CF][CF][CF][CF]!>)![CF]/ | %4
 z/!<(! [B,F][B,F][B,D][B,D]/ z/ [B,=E][B,E]/ z/ [EG]!<)![EG]/ | %5
 z/!>(! [^EG][EG][EG][EG]/ z/ [CF][CF][CF]!>)![CF]/ | %6
 z/ [DF][DF]/ z/ [CF][CF]/ z/ [^B,F][B,F]/ z/ [DG][^EG]/ | %7
 z/!>(! [FG][FG][FG][FG]/ z/ [EG][EG][EG]!>)![EG]/ | %8
 z/!<(! [=DF][DF][DF][DF]/ z/ [DF][DF][DF]!<)![DF]/ | z/ [=DG][DG][DG][DG]/ z/ [EG][EG][EG][EG]/ | %10
 z/ [=DF][DF]/ z/!<(! [DF][DF]/ z/ [DF]D/ z/ D/z/!<)!D/ | %11
 z/ [=EG][EG][EG][EG]/ z/ [EG][EG]/ z/ [EG][EG]/ | z/ [=E=A][EA][EA][EA]/ z/ [^EG][EG][EG][EG]/ | %13
 z/ CCCC/ z/ DDDD/ | z/ CCCC/ z/ [B,C][B,C][B,C][B,C]/ | x2 (3:2:2x x2 (3:2:2x G2 (3:2:2x A2 | %16
 (3:2:2x B2 (3:2:2x c2 (3:2:2x d2 (3:2:2x [eg]2 | %17
 (3:2:2x c2 (3:2:2x ([Af]2- (3:2:2[Af] [Bef]2- (3:2:2[Bef] [c=ef]2- | %18
 (3:2:2[c=ef] [cd-f-]2 (3:2:2[cdf] [=df]2- (3:2:2[Bdf] [cf]2- (3:2:2[Gcf] [Bf]2- | %19
 !fermata![Bf]2) z/ [CF][CF][CF][CF][CF][CF]/ | z/ [DF][DF][DF][DF][DF][DF][DF][DF]/ | %21
 z/ [FA][FA][FA][FA][FA][FA][FA][FA]/ | z/ [FA][FA][FA][FA]/ z/ [EG][EG][EG][EG]/ | %23
 z/ [CF]!>(![CF][CF][CF][CF][CF][CF]!>)![CF]/ | %24
 z/!<(! [B,F][B,F][B,D][B,D]/ z/ [B,=E][B,E]/ z/ [EG]!<)![EG]/ | %25
 z/!>(! [^EG][EG][EG][EG]/ z/ [CF][CF][CF]!>)![CF]/ | %26
 z/ [DF][DF]/ z/ [CF][CF]/ z/ [^B,F][B,F]/ z/ [DG][^EG]/ | %27
 z/!>(! [FG][FG][FG][FG]/ z/ [EG][EG][EG]!>)![EG]/ | %28
 z/!<(! [=DF][DF][DF][DF]/ z/ [DF][DF][DF]!<)![DF]/ | z/ [=DG][DG][DG][DG]/ z/ [EG][EG][EG][EG]/ | %30
 z/ [=DF][DF]/ z/ [DF][DF]/ z/ [DF]D/ z/ D/z/D/ | %31
 z/ [=EG][EG][EG][EG]/ z/ [^EG][EG]/ z/ [EG][EG]/ | z/ [=E=A][EA][EA][EA]/ z/ [^EG][EG][EG][EG]/ | %33
 z/ CCCC/ z/ DDDD/ | z/ CCCC/ z/ [B,C][B,C][B,C][B,C]/ | x2 (3:2:2x x2 (3:2:2x G2 (3:2:2x A2 | %36
 (3:2:2x B2 (3:2:2x c2 (3:2:2x d2 (3:2:2x [eg]2 | %37
 (3:2:2x c2 (3:2:2x ([Af]2- (3:2:2[Af] [Bef]2- (3:2:2[Bef] [c=ef]2- | %38
 (3:2:2[cef] [cd-f-]2 (3:2:2[cdf] [=df]2- (3:2:2[Bdf] [cf]2- (3:2:2[Gcf] [Bf]2- | %39
 !fermata![Bf]2) z/ [CF][CF][CF][CF][CF][CF]/- | x8 |] %41
V:4
 D,, (A,DF,A,D,F,A,,) | ^B,,, (A,DF,A,D,F,^B,,) | C,, (A,CC,) C,, (G,CC,) | %3
 F,,, (F,A,C,F,A,,C,F,,) | D,,D,B,,B,,, =E,,=E,G,,G,,, | C,, (G,B,C,) F,,, (F,A,C,) | %6
 B,,,B,,C,C,, D,,D,^B,,^B,,, | [G,,,G,,] G,^B,D, C,, G,CC, | (CC,B,B,,=A,=A,,G,G,,) | %9
 (C,,C,G,B,CB,G,C,) | (CC,) (B,B,,) (=A,=A,,) [G,,G,][F,,F,] | (=E,,=E,B,=D=EDB,=D,) | %12
 C,, (=A,CC,) B,,, (G,CC,) | ^A,,, (F,A,C,) ^B,,, (F,=A,^B,,) | C,, (F,^A,C,) C,, (E,G,C,) | %15
 F,,2 F,2 =E,2 =E,,2 | D,,2 D,2 B,,2 B,,,2 | F,,,2 [F,,F,]2 [G,,G,]2 [A,,A,]2 | %18
 [B,,B,]2 [C,C]2 [=D,=D]2!ped! [G,G]2- |!p! !fermata!F,,,!ped-up! (C,CF,A,C,F,A,,) | %20
!f! D,, (A,DF,A,D,F,A,,) | ^B,,, (A,DF,A,D,F,^B,,) | C,, (A,CC,) C,, (G,CC,) | %23
 F,,, (F,A,C,F,A,,C,F,,) | D,,D,B,,B,,, =E,,=E,G,,G,,, | B,,, (G,B,B,,) F,,, (F,A,A,,) | %26
 B,,,B,,C,C,, D,,D,^B,,^B,,, | [G,,,G,,] (G,^B,D,) C,, (G,CC,) |!p! (CC,B,B,,=A,=A,,G,G,,) | %29
 (C,,C,G,B,CB,G,C,) | (CC,) (B,B,,) (=A,=A,,) [G,,G,][F,,F,] | (=E,,=E,B,=D=EDB,=D,) | %32
 C,, (=A,CC,) B,,, (G,CC,) | ^A,,, (F,A,C,) ^B,,, (F,=A,^B,,) | C,, (F,^A,C,) C,, (E,G,C,) | %35
 F,,2 F,2 =E,2 =E,,2 | D,,2 D,2 B,,2 B,,,2 | F,,,2 [F,,F,]2 [G,,G,]2 [A,,A,]2 | %38
 [B,,B,]2 [C,C]2 [=D,=D]2!ped! [G,G]2- |!p! !fermata!F,,,!ped-up! (C,CF,A,C,F,A,,) | %40
 [F,,C,]2 z2 !fermata![D,,,F,,]4 |] %41
V:5
 x8 | x8 | x8 | x8 | x8 | x8 | x8 | x8 | x8 | x8 | x8 | x8 | x8 | x8 | x8 | x8 | x8 | x8 | x8 | %19
 [G,G] x7 | x8 | x8 | x8 | x8 | x8 | x8 | x8 | x8 | x8 | x8 | x8 | x8 | x8 | x8 | x8 | x8 | x8 | %37
 x8 | x8 | [G,G] x7 | x8 |] %41

